X: 270
T: Maudabawn Chapel
C:Ed Reavy
R:reel
M:4/4
L:1/8
K:Edor
"G"~G3D "(Em)"E2DB,|"G"G,A,B,D "(Em)"EDB,A,|"G"G,A,B,D GABd|gabg "Am"eaaf|
"G"gabg "Am7"efge|"G"dged B=cde|g2"D"fa "G"gedB|"Am"A=cBA "G"GEED:|
"Em"E2BE dEBE|E2BE "D" AFDF|"Em"~E3F "G"GFGB|"D"AF~F2 DF~F2|
"Em"EBBA ~B3A|BAGA "G"Bcde|"D"~f2af "A7"gfec|"D"dBAF "Em"GEED:|


